X: 3408
T: CAM' YE BY ATHOL
Q: "Andante."
%R: air, jig
B: James Kerr "Merry Melodies" v.3 p.45 #408
Z: 2016 John Chambers <jc:trillian.mit.edu>
M: 6/8
L: 1/8
K: D
[|!p!\
F>ED (D2B) | AFd F>ED | F>EE EFA | d>cB BAF |\
A>Bd edB | BAF ABHd | F>ED dcB | A<DF (E2D) |]
[|!f!\
d>AA e>AA | f>ed dcB | !p!A>BA ADE | F<AF (E2D) |\
d>AA efHg | f>ed dcB | A>BA Ade | f<af (e2d) |]

%%sep 1 1 500
%%sep 1 1 500

